!!!OTL: Spinnerlied.
!!!OTL-incipit:HURRE HURRE HURRE SCHNURRE
!!!ARE: Europa, Mitteleuropa, Deutschland
!!!SCT: F0202
!!!TXL: @@DE
!!!YEM: Copyright 1995, estate of Helmut Schaffrath.
**kern	**text
*ICvox	*
*clefG2	*
*M2/4	*
*k[f#]	*
*G:	*
=1	=1
!LO:TX:a:t=Munter.	!
{8g	1._Hur-
8d	-re,
8g	hur-
8d	-re,
=2	=2
(16gL	hur-
16a	.
16b	.
16aJ)	.
8g	-re!
8r}	.
=3	=3
{8a	ſchnurre,
8d	.
8a	Rädchen,
8d	.
=4	=4
(16aL	ſchnur-
16b	.
16cc	.
16bJ)	.
8a	-re!
8r}	.
=5	=5
{8dd	tril-
8a	-le,
8dd	Rädchen,
8a	.
=6	=6
(16ddL	lang
16eeJ)	.
(16ff#L	und
16eeJ)	.
4dd}	fein,
=7	=7
{8gg	tril-
8dd	-le
8gg	fein
8dd	ein
=8	=8
(16ddL	Fä-
16eeJ)	.
(16ddL	-de-
16ccJ)	.
4b}	-lein
=9	=9
{8.dd	mir
16gg	ʒum
16ddL	Buſen-
16bJ	.
16ccL	.
16aJ	.
=10	=10
8.gL	-ſchlei-
16aJ	.
8g	-er.
8r}	.
==	==
!!!AGN: Spinnstuben - Lied
!!!ONB: ESAC (Essen Associative Code) Database: FINK
!!!AMT: simple duple
!!!AIN: vox
!!!EED: Helmut Schaffrath
!!!EEV: 1.0
!!!GTL:Volkslieder
!!Text: G. A. Buerger
!!@@COMMENT:"Anmerk. Jn manchen ländlichen und ſtädtiſchen Kreiſen, namentlich in ſolchen, wo man den Geſang auf einem 
!!Claviere begleiten kann, werden die ʒwei Takte vom *) an in jeder Strophe mit demſelben untergelegtem und dem 
!!Liede ʒugefügtem Terte eingeſchoben."
!!@@END:
!!!source: Musikalischer Hausschatz der Deutschen. Eine Sammlung von über 1000 Liedern und Gesängen mit Singstimmen und Klavierbegleitung. Leipzig, Litterarisches Verlags-Haus.
!!!page: 118
!!!URL-scan: https://www.digitale-sammlungen.de/en/view/bsb11144622?page=126,127
!!!ENC: Anna Maria Matuszewska
!!!EEV: 2024/26/07
*-	*-
